X: 12
T: The Foxhunter's
R: slip jig
M: 9/8
L: 1/8
K: Edor
f3 ~f3 g2e|f3 f2d e2d|f3 f2d g2d|a2f d2f e2d:||:B3 B2A G2A|B2E E2F G2A|B3 B2A G2B|d2A D2F E2D:||:B3 B2A ^G2A|B2E E2F G2A|Bcd B2A F2A|d2A D2F E2D:||:f3 ~f3 g2e|f3 ~f3 e2d|d2f ~f3 g2b|a2f d2f e2d:|


Tune 482	Setting 13388

